packages/core/src/svgs/upp.svg

<svg width="24" height="24" viewBox="0 0 24 24" fill="none" xmlns="http://www.w3.org/2000/svg">
<g clip-path="url(#clip0_31_20233)">
<path d="M0 0H24V24H0V0Z" fill="#21A0B4"/>
<path d="M17.5114 12.7074L15.4114 16.3331C15.4971 16.5045 15.5099 16.6888 15.4542 16.8816C15.4118 17.0215 15.331 17.1467 15.2209 17.2428C15.1109 17.339 14.976 17.4023 14.8317 17.4256C14.6874 17.4488 14.5395 17.431 14.4048 17.3742C14.2701 17.3175 14.1541 17.224 14.0699 17.1045H9.97707C9.86472 17.2563 9.70113 17.3621 9.51666 17.4024C9.33219 17.4427 9.13936 17.4147 8.97396 17.3236C8.80855 17.2326 8.6818 17.0846 8.61722 16.9071C8.55264 16.7297 8.55462 16.5349 8.62279 16.3588L6.51422 12.7159C6.32634 12.692 6.15358 12.6005 6.02819 12.4586C5.90281 12.3166 5.83335 12.1339 5.83279 11.9445C5.83279 11.5288 6.1585 11.1859 6.56993 11.1645L8.61422 7.63307C8.55221 7.45851 8.554 7.26765 8.61925 7.09428C8.6845 6.92092 8.80901 6.77624 8.97072 6.68589C9.13243 6.59554 9.3209 6.56534 9.50274 6.60065C9.68459 6.63595 9.84807 6.73448 9.96422 6.87878H14.0785C14.1927 6.72536 14.3594 6.61926 14.5467 6.58065C14.734 6.54204 14.929 6.57361 15.0946 6.66936C15.2602 6.76512 15.3848 6.91837 15.4448 7.1C15.5048 7.28163 15.4959 7.47896 15.4199 7.6545L17.4514 11.1688C17.5527 11.1648 17.6538 11.1809 17.7489 11.216C17.844 11.2511 17.9312 11.3047 18.0056 11.3735C18.08 11.4424 18.1402 11.5252 18.1826 11.6173C18.225 11.7094 18.2488 11.8089 18.2528 11.9102C18.2567 12.0115 18.2407 12.1126 18.2055 12.2077C18.1704 12.3028 18.1169 12.3901 18.0481 12.4645C17.9792 12.5389 17.8964 12.599 17.8043 12.6414C17.7122 12.6838 17.6127 12.7077 17.5114 12.7116V12.7074ZM19.5256 11.2845L16.3799 5.85878C16.2544 5.64133 16.0739 5.46074 15.8565 5.33511C15.6391 5.20949 15.3924 5.14326 15.1414 5.14307H8.8585C8.34422 5.14307 7.87279 5.41735 7.61564 5.85878L4.4785 11.2845C4.22136 11.7302 4.22136 12.2702 4.4785 12.7116L7.61993 18.1416C7.74547 18.3591 7.926 18.5397 8.1434 18.6653C8.3608 18.7909 8.60742 18.8572 8.8585 18.8574H15.1414C15.6556 18.8574 16.1271 18.5874 16.3842 18.1416L19.5214 12.7116C19.7785 12.2745 19.7785 11.7259 19.5214 11.2845H19.5256Z" fill="white"/>
<path d="M16.8258 11.3999L15.5058 9.11561L10.5815 11.8756V11.8885C10.5613 12.0812 10.4704 12.2597 10.3264 12.3894C10.1823 12.5191 9.99537 12.5909 9.80154 12.5909C9.60771 12.5909 9.42075 12.5191 9.27671 12.3894C9.13268 12.2597 9.04177 12.0812 9.02154 11.8885C9.02287 11.7425 9.06516 11.5998 9.14358 11.4766C9.222 11.3535 9.33341 11.2548 9.46514 11.1919C9.59687 11.1289 9.74362 11.1042 9.8887 11.1205C10.0338 11.1368 10.1714 11.1935 10.2858 11.2842L15.1715 8.54561L14.9144 8.09989C14.8134 8.13013 14.7072 8.13933 14.6024 8.12691C14.4977 8.1145 14.3966 8.08074 14.3055 8.02772C14.2143 7.9747 14.1349 7.90355 14.0724 7.81866C14.0098 7.73378 13.9652 7.63695 13.9415 7.53418H10.093C10.0668 7.63667 10.0202 7.73281 9.95592 7.81682C9.89164 7.90083 9.81104 7.97096 9.71895 8.02301C9.62687 8.07506 9.52521 8.10794 9.42008 8.11968C9.31496 8.13142 9.20855 8.12177 9.10725 8.09132L7.17868 11.4128C7.24867 11.4864 7.30342 11.5731 7.33981 11.6679C7.37619 11.7628 7.39348 11.8639 7.3907 11.9654C7.38791 12.067 7.3651 12.1669 7.32356 12.2596C7.28203 12.3523 7.2226 12.4359 7.14868 12.5056L8.61868 15.0428L13.6544 12.137L13.6501 12.0642C13.6703 11.8714 13.7612 11.693 13.9053 11.5633C14.0493 11.4335 14.2363 11.3618 14.4301 11.3618C14.6239 11.3618 14.8109 11.4335 14.9549 11.5633C15.099 11.693 15.1899 11.8714 15.2101 12.0642C15.2106 12.2069 15.1719 12.3471 15.0983 12.4694C15.0246 12.5917 14.9188 12.6914 14.7924 12.7577C14.666 12.824 14.5238 12.8543 14.3813 12.8454C14.2388 12.8365 14.1015 12.7886 13.9844 12.707L8.9444 15.6128L9.11582 15.9042C9.21515 15.8742 9.31947 15.8645 9.42262 15.8755C9.52578 15.8866 9.62566 15.9182 9.71637 15.9686C9.80708 16.0189 9.88677 16.087 9.95072 16.1687C10.0147 16.2503 10.0616 16.344 10.0887 16.4442H13.9458C14.0009 16.2456 14.1324 16.0769 14.3114 15.9749C14.4905 15.8729 14.7026 15.846 14.9015 15.8999L16.8558 12.5185C16.7784 12.4488 16.7158 12.3642 16.672 12.2697C16.6281 12.1752 16.6039 12.0728 16.6007 11.9686C16.5975 11.8645 16.6154 11.7608 16.6533 11.6638C16.6913 11.5668 16.7485 11.4785 16.8215 11.4042L16.8258 11.3999Z" fill="white"/>
</g>
<defs>
<clipPath id="clip0_31_20233">
<rect width="24" height="24" fill="white"/>
</clipPath>
</defs>
</svg>

<svg xmlns="http://www.w3.org/2000/svg" width="24" height="24" fill="none" viewBox="0 0 24 24"><g clip-path="url(#a)"><path fill="#21A0B4" d="M0 0h24v24H0z"/><path fill="#fff" d="m17.511 12.707-2.1 3.626a.73.73 0 0 1 .043.549.78.78 0 0 1-1.384.223H9.977a.78.78 0 0 1-1.354-.746l-2.109-3.643a.78.78 0 0 1 .056-1.551l2.044-3.532a.784.784 0 0 1 1.35-.754h4.115a.78.78 0 0 1 1.34.776l2.032 3.514a.771.771 0 1 1 .06 1.543zm2.015-1.423L16.38 5.86a1.43 1.43 0 0 0-1.239-.716H8.858c-.514 0-.985.274-1.242.716l-3.137 5.426a1.42 1.42 0 0 0 0 1.427l3.14 5.43a1.43 1.43 0 0 0 1.24.715h6.282c.515 0 .986-.27 1.243-.715l3.137-5.43a1.42 1.42 0 0 0 0-1.428z"/><path fill="#fff" d="m16.826 11.4-1.32-2.284-4.924 2.76v.013a.784.784 0 0 1-1.56 0 .78.78 0 0 1 1.264-.605l4.886-2.738-.258-.446a.77.77 0 0 1-.973-.566h-3.848a.785.785 0 0 1-.986.557L7.18 11.413a.77.77 0 0 1-.03 1.093l1.47 2.537 5.035-2.906-.004-.073a.784.784 0 0 1 1.56 0 .78.78 0 0 1-1.226.643l-5.04 2.906.172.291a.776.776 0 0 1 .973.54h3.857a.78.78 0 0 1 .956-.544l1.954-3.382a.77.77 0 0 1-.035-1.114z"/></g><defs><clipPath id="a"><path fill="#fff" d="M0 0h24v24H0z"/></clipPath></defs></svg>
